icons/solid/thumb-down.svg

<svg width="24" height="24" viewBox="0 0 24 24" fill="none" xmlns="http://www.w3.org/2000/svg">
<path fill-rule="evenodd" clip-rule="evenodd" d="M16 3H8C5.23858 3 3 5.23858 3 8V10C3 12.7012 5.14199 14.9021 7.82007 14.9968L7.257 18.3752C7.028 19.7492 8.08756 21 9.4805 21C10.0783 21 10.6517 20.7625 11.0744 20.3398L16 15.4142V3ZM18 15C19.6569 15 21 13.6569 21 12V6C21 4.34315 19.6569 3 18 3V15Z" fill="currentColor"/>
</svg>

<svg width="24" height="24" fill="none" xmlns="http://www.w3.org/2000/svg"><path fill-rule="evenodd" clip-rule="evenodd" d="M16 3H8a5 5 0 00-5 5v2a5 5 0 004.82 4.997l-.563 3.378a2.254 2.254 0 003.817 1.965L16 15.414V3zm2 12a3 3 0 003-3V6a3 3 0 00-3-3v12z" fill="currentColor"/></svg>
